src/cmd/lc_hiderow.svg

<svg viewBox="0 0 24 24" xmlns="http://www.w3.org/2000/svg"><path d="m4 4v1 12.878906l1.8789062-1.878906h-.8789062v-1-1-1-2-1-1-1h3 1v1h1v-1h3.878906l1.121094-1.1210938v-.8789062-1h1.878906l1-1zm15.292969 0-15.292969 15.292969.7070312.707031 15.2929688-15.2929688zm-14.292969 1h4v1 1h-1-3zm5 0h4v1 1h-4v-1zm10 1.1210938-1.878906 1.8789062h.878906v1 1 1 2 1 1 1h-4v-1h-1v1h-3.878906l-1.121094 1.121094v.978515.900391h-1.8789062l-1 1h12.8789062 1zm-10 10.8789062h4v2h-4zm5 0h4v2h-4z" fill="#232629"/><path d="m5 9v.7070312.2929688h.2929688l3.2929687 3.292969.7070313-.707031-2.5859376-2.585938h2.5859376l1.2929692 1.292969.707031-.707031-.585938-.585938h1.171875l1-1h-3.1718748-4zm12.121094 0-1 1h2.878906v-1zm-1.707032 1.707031-.707031.707031 2.585938 2.585938h-2.585938l-1.292969-1.292969-.707031.707031.585938.585938h-1.171875l-1 1h7.878906v-1h-.292969zm-10.414062 3.292969v1h1.8789062l1-1z" fill="#762572"/></svg>

<?xml version="1.0" encoding="UTF-8" standalone="no"?>
<svg
   xmlns:dc="http://purl.org/dc/elements/1.1/"
   xmlns:cc="http://creativecommons.org/ns#"
   xmlns:rdf="http://www.w3.org/1999/02/22-rdf-syntax-ns#"
   xmlns:svg="http://www.w3.org/2000/svg"
   xmlns="http://www.w3.org/2000/svg"
   xmlns:sodipodi="http://sodipodi.sourceforge.net/DTD/sodipodi-0.dtd"
   xmlns:inkscape="http://www.inkscape.org/namespaces/inkscape"
   viewBox="0 0 24 24"
   version="1.1"
   id="svg6"
   sodipodi:docname="lc_hiderow.svg"
   inkscape:version="0.92.4 (5da689c313, 2019-01-14)">
  <metadata
     id="metadata12">
    <rdf:RDF>
      <cc:Work
         rdf:about="">
        <dc:format>image/svg+xml</dc:format>
        <dc:type
           rdf:resource="http://purl.org/dc/dcmitype/StillImage" />
      </cc:Work>
    </rdf:RDF>
  </metadata>
  <defs
     id="defs10" />
  <sodipodi:namedview
     pagecolor="#ffffff"
     bordercolor="#666666"
     borderopacity="1"
     objecttolerance="10"
     gridtolerance="10"
     guidetolerance="10"
     inkscape:pageopacity="0"
     inkscape:pageshadow="2"
     inkscape:window-width="1920"
     inkscape:window-height="1011"
     id="namedview8"
     showgrid="true"
     inkscape:zoom="19.666667"
     inkscape:cx="21.685006"
     inkscape:cy="15.343922"
     inkscape:window-x="1920"
     inkscape:window-y="32"
     inkscape:window-maximized="1"
     inkscape:current-layer="svg6">
    <inkscape:grid
       type="xygrid"
       id="grid822" />
  </sodipodi:namedview>
  <path
     d="M 7,4 C 5,4 4,4 4,6 V 17.878906 L 5.8789062,16 H 5 V 15 14 13 11 10 9 8 h 3 1 v 1 h 1 V 8 h 3.878906 L 15,6.8789062 V 6 5 h 1.878906 l 1,-1 z M 19.292969,4 4,19.292969 4.7070312,20 20,4.7070312 Z M 5,6 C 5,5 6,5 7,5 H 9 V 6 7 H 8 5 Z m 5,-1 h 4 V 6 7 H 10 V 6 Z M 20,6.1210938 18.121094,8 H 19 v 1 1 1 2 1 1 1 h -4 v -1 h -1 v 1 H 10.121094 L 9,17.121094 V 18.099609 19 H 7.1210938 l -1,1 H 17 c 2,0 3,0 3,-2 z M 10,17 h 4 v 2 h -4 z m 5,0 h 4 v 1 c 0,1 -1,1 -2,1 h -2 z"
     id="path2"
     inkscape:connector-curvature="0"
     style="fill:#232629"
     sodipodi:nodetypes="cccccccccccccccccccccccccccccccccccccccccccccccccccccccccccccccccccccccccccccc" />
  <path
     d="m5 9v.7070312.2929688h.2929688l3.2929687 3.292969.7070313-.707031-2.5859376-2.585938h2.5859376l1.2929692 1.292969.707031-.707031-.585938-.585938h1.171875l1-1h-3.1718748-4zm12.121094 0-1 1h2.878906v-1zm-1.707032 1.707031-.707031.707031 2.585938 2.585938h-2.585938l-1.292969-1.292969-.707031.707031.585938.585938h-1.171875l-1 1h7.878906v-1h-.292969zm-10.414062 3.292969v1h1.8789062l1-1z"
     fill="#762572"
     id="path4" />
</svg>
